public/CloudGram.svg

<svg version="1.1" id="Layer_1" xmlns="http://www.w3.org/2000/svg" xmlns:xlink="http://www.w3.org/1999/xlink" x="0px" y="0px"
	 width="100%" viewBox="0 0 1080 1080" enable-background="new 0 0 1080 1080" xml:space="preserve">
<path fill="none" opacity="1.000000" stroke="none" 
	d="
M712.000000,1081.000000 
	C474.694000,1081.000000 237.887985,1081.000000 1.040994,1081.000000 
	C1.040994,721.068848 1.040994,361.137756 1.040994,1.103307 
	C360.889526,1.103307 720.779114,1.103307 1080.834351,1.103307 
	C1080.834351,360.999939 1080.834351,720.999939 1080.834351,1081.000000 
	C958.137268,1081.000000 835.318665,1081.000000 712.000000,1081.000000 
M757.500000,883.867615 
	C779.832458,883.851013 802.164856,883.849609 824.497314,883.813293 
	C844.906921,883.780151 864.901489,881.043030 884.552368,875.339417 
	C920.141846,865.009521 951.789062,847.588074 978.814331,822.331726 
	C1021.174072,782.744812 1046.398560,734.236023 1053.314209,676.373230 
	C1056.998535,645.548401 1054.788330,615.207581 1046.487671,585.411133 
	C1035.473999,545.875671 1015.257568,511.467194 986.397827,482.323151 
	C963.413330,459.112244 936.519592,441.546265 906.173462,429.446381 
	C888.677734,422.470337 870.510803,417.665222 851.830444,415.250519 
	C840.352173,413.766785 840.252258,414.200104 838.796631,402.925720 
	C835.709351,379.012695 829.041931,356.149902 818.812927,334.321594 
	C801.890137,298.209290 777.315002,268.409576 745.311523,244.608078 
	C705.932739,215.321426 661.294495,201.103912 612.763123,198.376740 
	C594.423035,197.346161 576.305603,200.309448 558.316772,203.869659 
	C528.422729,209.786041 500.988403,221.618347 475.691071,238.385345 
	C452.596802,253.692139 432.818939,272.596497 416.591675,295.106232 
	C414.463562,298.058258 412.850281,299.056183 408.936127,297.333923 
	C377.574127,283.534790 345.032379,280.373962 311.842804,288.963257 
	C272.788788,299.070312 242.207489,321.284363 220.766861,355.660889 
	C209.889267,373.101318 202.893570,392.056335 200.031601,412.394806 
	C198.689423,421.933075 199.125458,421.996460 190.301880,424.733948 
	C157.040710,435.053009 127.910301,452.481720 102.438797,476.086304 
	C73.334183,503.057739 52.681923,535.571289 39.580685,572.947693 
	C33.116112,591.390320 29.086115,610.512329 27.589643,629.848816 
	C26.443901,644.653320 27.429258,659.783813 29.056585,674.594666 
	C30.553888,688.222107 33.335300,701.849243 37.011749,715.070374 
	C48.798244,757.456482 71.447327,793.429138 104.089119,822.805359 
	C149.327393,863.517944 202.331802,884.066406 263.543945,883.962402 
	C427.862213,883.683044 592.181274,883.867249 757.500000,883.867615 
z"/>
<path fill="#2296F3" opacity="1.000000" stroke="none" 
	d="
M757.000000,883.867554 
	C592.181274,883.867249 427.862213,883.683044 263.543945,883.962402 
	C202.331802,884.066406 149.327393,863.517944 104.089119,822.805359 
	C71.447327,793.429138 48.798244,757.456482 37.011749,715.070374 
	C33.335300,701.849243 30.553888,688.222107 29.056585,674.594666 
	C27.429258,659.783813 26.443901,644.653320 27.589643,629.848816 
	C29.086115,610.512329 33.116112,591.390320 39.580685,572.947693 
	C52.681923,535.571289 73.334183,503.057739 102.438797,476.086304 
	C127.910301,452.481720 157.040710,435.053009 190.301880,424.733948 
	C199.125458,421.996460 198.689423,421.933075 200.031601,412.394806 
	C202.893570,392.056335 209.889267,373.101318 220.766861,355.660889 
	C242.207489,321.284363 272.788788,299.070312 311.842804,288.963257 
	C345.032379,280.373962 377.574127,283.534790 408.936127,297.333923 
	C412.850281,299.056183 414.463562,298.058258 416.591675,295.106232 
	C432.818939,272.596497 452.596802,253.692139 475.691071,238.385345 
	C500.988403,221.618347 528.422729,209.786041 558.316772,203.869659 
	C576.305603,200.309448 594.423035,197.346161 612.763123,198.376740 
	C661.294495,201.103912 705.932739,215.321426 745.311523,244.608078 
	C777.315002,268.409576 801.890137,298.209290 818.812927,334.321594 
	C829.041931,356.149902 835.709351,379.012695 838.796631,402.925720 
	C840.252258,414.200104 840.352173,413.766785 851.830444,415.250519 
	C870.510803,417.665222 888.677734,422.470337 906.173462,429.446381 
	C936.519592,441.546265 963.413330,459.112244 986.397827,482.323151 
	C1015.257568,511.467194 1035.473999,545.875671 1046.487671,585.411133 
	C1054.788330,615.207581 1056.998535,645.548401 1053.314209,676.373230 
	C1046.398560,734.236023 1021.174072,782.744812 978.814331,822.331726 
	C951.789062,847.588074 920.141846,865.009521 884.552368,875.339417 
	C864.901489,881.043030 844.906921,883.780151 824.497314,883.813293 
	C802.164856,883.849609 779.832458,883.851013 757.000000,883.867554 
M402.483826,782.637085 
	C409.495300,785.600891 415.881104,784.049927 421.740326,779.731812 
	C430.576202,773.220154 439.329895,766.596375 448.089508,759.981873 
	C465.475708,746.853210 482.842072,733.698364 500.855865,720.831482 
	C504.884583,724.054443 508.944763,727.238953 512.937073,730.506409 
	C546.193970,757.724976 579.403992,785.001099 612.707153,812.162964 
	C622.940430,820.509094 637.472229,815.726868 640.965515,803.072510 
	C641.319641,801.789856 641.621277,800.492126 641.925476,799.196289 
	C667.889648,688.579468 693.853455,577.962585 719.812561,467.344543 
	C725.289673,444.005066 730.817688,420.677216 736.184265,397.312317 
	C738.501282,387.224487 736.088013,380.581207 729.076355,376.277039 
	C723.773987,373.022125 718.349426,373.566376 712.733948,375.420776 
	C681.446472,385.752838 650.123108,395.975861 618.833679,406.302124 
	C494.881958,447.209198 370.936462,488.135193 246.997955,529.082214 
	C241.791916,530.802246 236.468567,532.372498 231.567703,534.765686 
	C222.800476,539.047058 219.461655,549.538696 224.709625,557.489197 
	C227.031982,561.007263 230.995911,564.084290 234.900116,565.816711 
	C276.143951,584.118225 317.526215,602.107849 358.994171,620.945374 
	C362.337219,636.177795 365.711731,651.403320 369.016937,666.643982 
	C376.332428,700.376526 383.589478,734.121765 390.928650,767.849121 
	C392.330261,774.290161 395.239105,779.706665 402.483826,782.637085 
z"/>
<path fill="#EBF0FB" opacity="1.000000" stroke="none" 
	d="
M358.870239,620.183472 
	C317.526215,602.107849 276.143951,584.118225 234.900116,565.816711 
	C230.995911,564.084290 227.031982,561.007263 224.709625,557.489197 
	C219.461655,549.538696 222.800476,539.047058 231.567703,534.765686 
	C236.468567,532.372498 241.791916,530.802246 246.997955,529.082214 
	C370.936462,488.135193 494.881958,447.209198 618.833679,406.302124 
	C650.123108,395.975861 681.446472,385.752838 712.733948,375.420776 
	C718.349426,373.566376 723.773987,373.022125 729.076355,376.277039 
	C736.088013,380.581207 738.501282,387.224487 736.184265,397.312317 
	C730.817688,420.677216 725.289673,444.005066 719.812561,467.344543 
	C693.853455,577.962585 667.889648,688.579468 641.925476,799.196289 
	C641.621277,800.492126 641.319641,801.789856 640.965515,803.072510 
	C637.472229,815.726868 622.940430,820.509094 612.707153,812.162964 
	C579.403992,785.001099 546.193970,757.724976 512.937073,730.506409 
	C508.944763,727.238953 504.884583,724.054443 500.426575,720.393250 
	C499.697540,719.562683 499.460815,719.093262 499.088898,718.789246 
	C486.652985,708.622437 474.233704,698.434875 461.746796,688.330872 
	C453.259155,681.462952 444.674042,674.715393 436.099243,667.554810 
	C437.210571,665.464539 438.096039,663.472290 439.538208,662.041138 
	C466.004517,635.776733 492.597626,609.640015 519.040771,583.352417 
	C549.983765,552.591309 580.790039,521.692810 611.701843,490.900177 
	C617.117188,485.505646 622.744690,480.323181 628.302673,475.072937 
	C631.542480,472.012543 632.505005,467.694702 630.204407,464.898651 
	C627.490234,461.600037 624.104980,461.147430 620.397583,463.309937 
	C619.536255,463.812347 618.653564,464.278839 617.799988,464.793884 
	C595.899658,478.008698 574.021057,491.259888 552.099243,504.439026 
	C514.515259,527.033936 476.917999,549.606995 439.300140,572.145569 
	C412.512421,588.195312 385.681763,604.173401 358.870239,620.183472 
z"/>
<path fill="#BDC3D1" opacity="1.000000" stroke="none" 
	d="
M358.932190,620.564453 
	C385.681763,604.173401 412.512421,588.195312 439.300140,572.145569 
	C476.917999,549.606995 514.515259,527.033936 552.099243,504.439026 
	C574.021057,491.259888 595.899658,478.008698 617.799988,464.793884 
	C618.653564,464.278839 619.536255,463.812347 620.397583,463.309937 
	C624.104980,461.147430 627.490234,461.600037 630.204407,464.898651 
	C632.505005,467.694702 631.542480,472.012543 628.302673,475.072937 
	C622.744690,480.323181 617.117188,485.505646 611.701843,490.900177 
	C580.790039,521.692810 549.983765,552.591309 519.040771,583.352417 
	C492.597626,609.640015 466.004517,635.776733 439.538208,662.041138 
	C438.096039,663.472290 437.210571,665.464539 435.723145,667.641174 
	C434.017883,671.888611 432.440430,675.628540 431.326569,679.501892 
	C421.499451,713.674927 411.754700,747.871765 401.985596,782.061523 
	C395.239105,779.706665 392.330261,774.290161 390.928650,767.849121 
	C383.589478,734.121765 376.332428,700.376526 369.016937,666.643982 
	C365.711731,651.403320 362.337219,636.177795 358.932190,620.564453 
z"/>
<path fill="#AFB4C8" opacity="1.000000" stroke="none" 
	d="
M402.234711,782.349304 
	C411.754700,747.871765 421.499451,713.674927 431.326569,679.501892 
	C432.440430,675.628540 434.017883,671.888611 435.756439,668.000427 
	C444.674042,674.715393 453.259155,681.462952 461.746796,688.330872 
	C474.233704,698.434875 486.652985,708.622437 499.088898,718.789246 
	C499.460815,719.093262 499.697540,719.562683 500.106934,720.254639 
	C482.842072,733.698364 465.475708,746.853210 448.089508,759.981873 
	C439.329895,766.596375 430.576202,773.220154 421.740326,779.731812 
	C415.881104,784.049927 409.495300,785.600891 402.234711,782.349304 
z"/>
</svg>

<svg xmlns="http://www.w3.org/2000/svg" xml:space="preserve" viewBox="0 0 1080 1080"><path fill="#2296F3" d="M757 883.868c-164.819 0-329.138-.185-493.456.094-61.212.104-114.217-20.444-159.455-61.157C71.447 793.43 48.8 757.456 37.012 715.07c-3.677-13.22-6.458-26.848-7.955-40.475-1.628-14.811-2.613-29.942-1.467-44.746 1.496-19.337 5.526-38.459 11.99-56.901 13.102-37.377 33.754-69.89 62.859-96.862 25.471-23.604 54.602-41.033 87.863-51.352 8.823-2.738 8.387-2.8 9.73-12.34 2.862-20.338 9.857-39.293 20.735-56.733 21.44-34.377 52.022-56.59 91.076-66.698 33.19-8.589 65.731-5.428 97.093 8.37 3.914 1.723 5.528.725 7.656-2.227 16.227-22.51 36.005-41.414 59.1-56.72 25.296-16.768 52.73-28.6 82.625-34.516 17.989-3.56 36.106-6.524 54.446-5.493 48.531 2.727 93.17 16.944 132.549 46.231 32.003 23.802 56.578 53.601 73.5 89.714 10.23 21.828 16.897 44.69 19.985 68.604 1.455 11.274 1.555 10.84 13.033 12.325 18.68 2.414 36.848 7.22 54.343 14.195 30.347 12.1 57.24 29.666 80.225 52.877 28.86 29.144 49.076 63.553 60.09 103.088 8.3 29.797 10.51 60.137 6.826 90.962-6.915 57.863-32.14 106.372-74.5 145.959-27.025 25.256-58.672 42.678-94.262 53.007-19.65 5.704-39.645 8.441-60.055 8.474-22.332.037-44.665.038-67.497.055m-354.516-101.23c7.011 2.963 13.397 1.412 19.256-2.906 8.836-6.512 17.59-13.136 26.35-19.75 17.386-13.129 34.752-26.284 52.766-39.15 4.029 3.222 8.089 6.407 12.081 9.674 33.257 27.219 66.467 54.495 99.77 81.657 10.233 8.346 24.765 3.564 28.259-9.09.354-1.283.655-2.58.96-3.877a7432521.45 7432521.45 0 0 0 77.887-331.851c5.477-23.34 11.005-46.668 16.371-70.033 2.317-10.088-.096-16.73-7.108-21.035-5.302-3.255-10.727-2.71-16.342-.856-31.288 10.332-62.61 20.555-93.9 30.881a1214766.314 1214766.314 0 0 0-371.836 122.78c-5.206 1.72-10.53 3.29-15.43 5.684-8.768 4.281-12.106 14.773-6.858 22.723 2.322 3.518 6.286 6.595 10.19 8.328 41.244 18.301 82.626 36.29 124.094 55.128 3.343 15.233 6.718 30.458 10.023 45.699 7.315 33.733 14.572 67.478 21.912 101.205 1.401 6.441 4.31 11.858 11.555 14.788z"/><path fill="#EBF0FB" d="M358.87 620.183c-41.344-18.075-82.726-36.065-123.97-54.366-3.904-1.733-7.868-4.81-10.19-8.328-5.248-7.95-1.91-18.442 6.858-22.723 4.9-2.394 10.224-3.964 15.43-5.684 123.938-40.947 247.884-81.873 371.836-122.78 31.29-10.326 62.612-20.55 93.9-30.881 5.615-1.855 11.04-2.399 16.342.856 7.012 4.304 9.425 10.947 7.108 21.035-5.366 23.365-10.894 46.693-16.371 70.033a7432521.45 7432521.45 0 0 1-77.888 331.851c-.304 1.296-.605 2.594-.96 3.877-3.493 12.654-18.025 17.436-28.258 9.09-33.303-27.162-66.513-54.438-99.77-81.657-3.992-3.267-8.052-6.452-12.51-10.113-.73-.83-.966-1.3-1.338-1.604-12.436-10.167-24.855-20.354-37.342-30.458-8.488-6.868-17.073-13.616-25.648-20.776 1.112-2.09 1.997-4.083 3.44-5.514 26.466-26.264 53.059-52.401 79.502-78.689 30.943-30.76 61.749-61.66 92.66-92.452 5.416-5.394 11.044-10.577 16.602-15.827 3.24-3.06 4.202-7.378 1.901-10.174-2.714-3.299-6.099-3.752-9.806-1.59-.862.503-1.744.97-2.598 1.485-21.9 13.215-43.779 26.466-65.7 39.645a87763.902 87763.902 0 0 1-112.8 67.707c-26.788 16.05-53.618 32.027-80.43 48.037z"/><path fill="#BDC3D1" d="M358.932 620.564c26.75-16.39 53.58-32.369 80.368-48.418a87763.902 87763.902 0 0 0 112.8-67.707c21.921-13.18 43.8-26.43 65.7-39.645.854-.515 1.736-.982 2.598-1.484 3.707-2.163 7.092-1.71 9.806 1.589 2.301 2.796 1.338 7.114-1.901 10.174-5.558 5.25-11.186 10.433-16.601 15.827-30.912 30.793-61.718 61.691-92.661 92.452-26.443 26.288-53.036 52.425-79.503 78.69-1.442 1.43-2.327 3.423-3.815 5.6-1.705 4.247-3.283 7.987-4.396 11.86-9.828 34.173-19.572 68.37-29.341 102.56-6.747-2.355-9.656-7.772-11.057-14.213-7.34-33.727-14.597-67.472-21.912-101.205-3.305-15.24-6.68-30.466-10.085-46.08z"/><path fill="#AFB4C8" d="M402.235 782.35c9.52-34.478 19.264-68.675 29.092-102.848 1.113-3.873 2.69-7.613 4.43-11.502 8.917 6.715 17.502 13.463 25.99 20.33 12.487 10.105 24.906 20.292 37.342 30.46.372.303.609.773 1.018 1.465-17.265 13.443-34.631 26.598-52.017 39.727-8.76 6.614-17.514 13.238-26.35 19.75-5.859 4.318-12.245 5.869-19.505 2.617z"/></svg>
